symbols/web/drive_file_move_rtl/materialsymbolsoutlined/drive_file_move_rtl_wght700grad200_40px.svg

<svg xmlns="http://www.w3.org/2000/svg" height="40" width="40"><path d="m19.583 28.042 2.084-2-2.917-2.959h7.958V20.25H18.75l2.833-2.917-2-1.958-6.291 6.333ZM6.542 34.583q-1.792 0-3.104-1.312-1.313-1.313-1.313-3.104V9.292q0-1.834 1.313-3.146Q4.75 4.833 6.542 4.833h10.125l3.375 3.375H33.5q1.833 0 3.146 1.292 1.312 1.292 1.312 3.125v17.542q0 1.791-1.312 3.104-1.313 1.312-3.146 1.312Zm0-25.291v20.875H33.5V12.625H18.208l-3.333-3.333H6.542Zm0 0v20.875Z"/></svg>

<svg xmlns="http://www.w3.org/2000/svg" height="40" width="40"><path d="M19.583 28.042 21.667 26.042 18.75 23.083H26.708V20.25H18.75L21.583 17.333L19.583 15.375L13.292 21.708ZM6.542 34.583Q4.75 34.583 3.438 33.271Q2.125 31.958 2.125 30.167V9.292Q2.125 7.458 3.438 6.146Q4.75 4.833 6.542 4.833H16.667L20.042 8.208H33.5Q35.333 8.208 36.646 9.5Q37.958 10.792 37.958 12.625V30.167Q37.958 31.958 36.646 33.271Q35.333 34.583 33.5 34.583ZM6.542 9.292V30.167Q6.542 30.167 6.542 30.167Q6.542 30.167 6.542 30.167H33.5Q33.5 30.167 33.5 30.167Q33.5 30.167 33.5 30.167V12.625Q33.5 12.625 33.5 12.625Q33.5 12.625 33.5 12.625H18.208L14.875 9.292H6.542Q6.542 9.292 6.542 9.292Q6.542 9.292 6.542 9.292ZM6.542 9.292Q6.542 9.292 6.542 9.292Q6.542 9.292 6.542 9.292V12.625Q6.542 12.625 6.542 12.625Q6.542 12.625 6.542 12.625V30.167Q6.542 30.167 6.542 30.167Q6.542 30.167 6.542 30.167Q6.542 30.167 6.542 30.167Q6.542 30.167 6.542 30.167Z"/></svg>
